X:1
T:Title
%%score { ( 1 3 ) | 2 }
L:1/8
M:4/4
K:F
V:1 treble nm="Grand Piano"
V:3 treble 
V:2 bass 
V:1
 z4 z2 z[Q:1/4=94] C | A>_A =A>B A>G F2 | .[EG]2 .[EG]2 .[EG]2 .[EG]2 | %3
 [GB]>[^FA] [GB]>[Ac] [GB]>[=FA] [EG]2 | .[Ec]2 .[Fc]2 .[Ec]2 .[Fc]2 | %5
 [Fd]>[Fd] [Fd]>[Fc] [FA]>[GB] [Ac]2 | c>c c>B [CF]>[CEG] [CFA]2 | D>E F>G A>B c2 | %8
 .[G,EG]2 .[Fc]2 .[EG]2 .c2 | c3 A [Fd]3 [Fd] | c>A F>A [DG]<D B>A |[M:3/4] B6 |[M:1/4] A>G | %13
[M:4/4] A6 z2 | c3 A [Fd]3 [Fd] | c>A F>A [DG]<[CD] C>C | F>G A>B c>A [FB]>[DFG] | %17
[M:3/4] [CFA]2 [B,CEG]2 [A,CF]2 |] %18
V:2
 z4 z2 z [F,A,] | [F,CF]>[F,=B,F] [F,CF]>[F,DF] [F,CF]>[F,_B,F] [F,A,]2 | %2
 .[C,C]2 .[C,C]2 .[C,C]2 .[C,C]2 | [C,C]>[C,C] [C,C]>[C,C] [C,C]>[C,C] [C,C]2 | %4
 .[B,,G,]2 .[F,A,]2 .[C,G,]2 .[F,A,]2 | [B,,B,]>[C,B,] [D,B,]>[E,C] [F,C]>[F,C] [F,C]2 | %6
 [F,A,F]>[F,A,F] [F,A,F]>[F,DF] A,,>C, F,2 | D,>E, F,>G, A,>B, C2 | %8
 .C,2 .[C,A,]2 .[C,G,]2 .[F,A,F]2 | [F,A,F]3 [F,F] [B,,B,]3 [B,,B,] | %10
 [F,A,F]>[F,CF] [F,A,]>[F,CF] [B,,B,]<[B,,B,] z2 |[M:3/4] z [C,C] [C,B,]>[C,A,] [C,G,]2 | %12
[M:1/4] z2 |[M:4/4] z [F,C] [F,C]>[F,C] F,2 z2 | [F,A,F]3 [F,A,F] [B,,B,]3 [B,,B,] | %15
 [F,A,F]>[F,CF] [F,A,]>[F,CF] [B,,B,]<[B,,B,] C,>C, | F,>G, A,>B, C>A, B,>B,, | %17
[M:3/4] C,2 C,2 F,2 |] %18
V:3
 x8 | x8 | x8 | x8 | x8 | x8 | x8 | x8 | x8 | x8 | x8 |[M:3/4] z E G>F E2 |[M:1/4] x2 | %13
[M:4/4] z F E>D C2 z2 | x8 | x8 | x8 |[M:3/4] x6 |] %18

